X:1
T:Title
%%score ( 1 2 ) ( 3 4 )
L:1/8
M:3/4
K:F
V:1 treble nm="Choir Aahs, Unnamed-000"
V:2 treble 
V:3 bass nm="Choir Aahs, Unnamed-001"
V:4 bass 
V:1
 F2 [FA]>[EG] [FA]2 | [Fc]2 [Ec]2 [EB]2 | [EA]2 [EG]>[_E^F] [=EG]2 | [GB]2 B2 A2 | %4
w: By~Tullius~C.~O'Kane * * *||||
 [CF]2 [FA]>[EG] [FA]2 | [Fc]2 [Fc]2 [FB]2 | [FA]2 [CG]>[C^F] [CG]2 | [EA]2 F4 | %8
w: ||||
 [Ec]2 [Ec]>G [EG]2 | [EG][Ec] [Fc]>A [FA]2 | [FA]2 [EG]>[FA] [GB]2 | [Ec]2 [FA]4 | %12
w: ||||
 [Fc]2 [Fd]>[E^c] [Fd]2 | [FB]2 [Fd]>c [Fc]2 | [FA]2 [CG]>[C^F] [EG]2 | [EA]2 F4 |] %16
w: ||||
V:2
 x6 | x6 | x6 | z2 F4 | x6 | x6 | x6 | x6 | x6 | x6 | x6 | x6 | x6 | x6 | x6 | x6 |] %16
V:3
 [F,A,]2 [F,C]>[F,C] [F,C]2 | [F,A,]2 G,2 G,2 | [C,C]2 [C,C]>[C,C] [C,C]2 | z2 D2 z2 | %4
 [F,A,]2 [F,C]>[F,C] [F,C]2 | [A,,_E]2 [B,,E]2 [B,,D]2 | [C,C]2 [C,B,]>[C,A,] [C,B,]2 | %7
 [C,C]2 [F,A,]4 | [C,G,]2 [C,G,]>C [C,C]2 | [C,B,][C,G,] [F,A,]>C [F,C]2 | %10
 [F,C]2 [C,C]>[C,C] [C,C]2 | [C,C]2 [F,C]4 | z2 z2 B,2 | B,2 z2 z2 | [F,C]2 [C,B,]>[C,A,] [C,B,]2 | %15
 [C,C]2 [F,A,]4 |] %16
V:4
 x6 | x6 | x6 | [C,C]2 F,2- [F,C]2 | x6 | x6 | x6 | x6 | x6 | x6 | x6 | x6 | %12
 [F,A,]2 [B,,B,]>[B,,B,] B,,C, | D,E, [F,B,]>A, [F,A,]2 | x6 | x6 |] %16

